X: 40700
T: Torrid Romance, The
R: reel
M: 4/4
K: Dmixolydian
|:D2(3EFG ABcA|d2Ad cAGE|DECE DEFG|ABcA G~E3|
D2(3EFG ABcA|d2Ad efge|dcAG FGAB|1 c2Bd cAGE:|2 c2Bd cABc||
|:d2Ad efge|d2Ad cAGA|d2Ad efge|a2ga eage|
d2Ad efge|d2Ad cAGA|cAGE DECE|GAcd cAGE:|

